X:105
T:Crossing the Cumberland
C:Bill Monroe
N:Transcribed by Mike Stangeland
R:bluegrass
L:1/8
Q:1/4=170
M:4/4
K:Bb
z6 DF |: "Banjo solo""Gm"Gd gd "F"Gc fc | "Gm"GB dB "Cm"GG cG | "Gm"GA BA BG FD | 
"D"G{G}A dA d4 | "Gm"Gd gd "F"Gc fc | "Gm"GB dB "Cm"GG cG | "Gm"GA BG "F"AG FA | 
|1 G"Gm"D B,D G,4 :|2 G"Gm"D B,D G,3D |: "Gm"GA BA BG FD | [D2G,2] [g2d2D2] [g3d3D3G,3]F | 
GA BA BA GF | "D"[A2D2] [d2A2] [d3A3]D | "Gm"GA BA BG FD | [D2G,2] [g2d2D2] [g3d3D3G,3]F | 
GA BG "F"AG FA | "Gm"GD B,D G,4 :| "Gm"g/g/g/g/ g/g/a "F"f/f/f/f/ f/f/g | "Gm"d/d/d/d/ d/d/e "Cm"c/c/c/c/ cc | 
{F}"Gm"GG GG {B}=BG FD | {_A}"D"=A/d/d/d/ d/d/d/d/ d2 dd | "Gm"g/g/g/g/ g/g/a/a/ "F"f/f/f/f/ f/f/g | 
"Gm"d/d/d/d/ d/d/e "Cm"c/c/c/c/ cc | "Gm"GG {A}BB "F"cc {A}BB | "Gm"G/G/G/G/ G/G/G/G/ G/G/G/G/ z2 | 
"Bill Monroe solo""Gm"G,=B, DG {B}=Bd g2 | gf dc {B}=BG zG | G,B, DG =BG FC | 
"D"DD _GA d2 [d2A2] | "Gm"G,B, DG {B}=Bd gb | g2 {_d}=dc BG zG | Fd dd "F"c{B}=B cA | 
"Gm"G2 G2 G4 | z8 | z8 | 


